X:5875
T:Scottish des amoureux
O:england
C:F. Paris
M:2/4
L:1/16
K:C
E2EF GEeE|dcBA G4|B2Bc ~d2AB|cBcd ~e2ce|\
E2EF GEeE|dcBA G4|
B2Bc ~d2AB|1 c2cc ~c2Gc:|2  c2cc ~c2Bc|:\
K:G
d2de (3ded (3cdc|B2Bc (3BcB (3GBG|DG (3BcB DG (3BcB|
A2c2 c4|{AB}c2cd (3cdc (3BcB|A2AB (3ABA (3FAF|\
DF (3ABA DF (3ABA|1 G2B2 B4:|2 GBGB FAFA||


